X:263
T: HIER IN DES ABENDS TRAULICH ERNSTER STILLE
N: B0312
O: Europa, Mitteleuropa, Deutschland
R: Geselligkeits - Lied, Freude
M: 4/4
L: 1/8
K: Bb
 | B4B2B2 | c4c4 | d2B2B2c2 | B4A2z2
d4d2d2 | d3cc4 | B3Bc2B2 | B4A4
d4c2B2 | e3dc4 | d3dc2B2 | A2G2F4
d4B2c2 | B4A4 | B8

